archdroid-icon-theme/Archdroid-BlueGrey/status/scalable/wb_sunny.svg

<svg fill="#607D8B" height="48" viewBox="0 0 48 48" width="48" xmlns="http://www.w3.org/2000/svg"><path d="m13.51 9.69-3.58-3.59-2.83 2.83 3.59 3.59zm-5.51 11.31h-6v4h6zm18-19.9h-4v5.9h4zm14.9 7.83-2.83-2.83-3.59 3.59 2.83 2.83zm-6.41 27.38 3.59 3.59 2.83-2.83-3.59-3.59zm5.51-15.31v4h6v-4zm-16-10c-6.63 0-12 5.37-12 12s5.37 12 12 12 12-5.37 12-12-5.37-12-12-12zm-2 33.9h4v-5.9h-4zm-14.9-7.83 2.83 2.83 3.59-3.59-2.83-2.83z" fill="#607D8B"/></svg>

<svg fill="#607D8B" height="48" viewBox="0 0 48 48" width="48" xmlns="http://www.w3.org/2000/svg"><path d="M13.51 9.69L9.93 6.1 7.1 8.93l3.59 3.59 2.82-2.83zM8 21H2v4h6v-4zM26 1.1h-4V7h4V1.1zm14.9 7.83L38.07 6.1l-3.59 3.59 2.83 2.83 3.59-3.59zm-6.41 27.38l3.59 3.59 2.83-2.83-3.59-3.59-2.83 2.83zM40 21v4h6v-4h-6zM24 11c-6.63 0-12 5.37-12 12s5.37 12 12 12 12-5.37 12-12-5.37-12-12-12zm-2 33.9h4V39h-4v5.9zM7.1 37.07l2.83 2.83 3.59-3.59-2.83-2.83-3.59 3.59z"/></svg>
